X:353
T: Banks of the Devon
N: O'Farrell's Pocket Companion v.4 (Sky ed. p.153)
M: 6/8
L: 1/8
Q: 120 % "slow"
R: jig
K: Em
B| E>FA BA d/d/| A>DG F>ED| E>FA B>de| B>AF E2 :|
z| e>B e/f/ g>fe| d>Ad F2E| e>Be g>fe| B>ef e3|
e>B e/f/ g>fe| d>Ad FED| E>FA B>de| B/A/GF E2 :|
